icons/rows-24.svg

<svg width="24" height="25" viewBox="0 0 24 25" fill="none" xmlns="http://www.w3.org/2000/svg">
<path fill-rule="evenodd" clip-rule="evenodd" d="M20.25 2.5C21.2165 2.5 22 3.2835 22 4.25L22 9.75C22 10.7165 21.2165 11.5 20.25 11.5L3.75 11.5C2.7835 11.5 2 10.7165 2 9.75L2 4.25C2 3.2835 2.7835 2.5 3.75 2.5L20.25 2.5ZM20.5 4.25C20.5 4.11193 20.3881 4 20.25 4L3.75 4C3.61193 4 3.5 4.11193 3.5 4.25L3.5 9.75C3.5 9.88807 3.61193 10 3.75 10L20.25 10C20.3881 10 20.5 9.88807 20.5 9.75L20.5 4.25Z" fill="black"/>
<path fill-rule="evenodd" clip-rule="evenodd" d="M20.25 13.5C21.2165 13.5 22 14.2835 22 15.25L22 20.75C22 21.7165 21.2165 22.5 20.25 22.5L3.75 22.5C2.7835 22.5 2 21.7165 2 20.75L2 15.25C2 14.2835 2.7835 13.5 3.75 13.5L20.25 13.5ZM20.5 15.25C20.5 15.1119 20.3881 15 20.25 15L3.75 15C3.61193 15 3.5 15.1119 3.5 15.25L3.5 20.75C3.5 20.8881 3.61193 21 3.75 21L20.25 21C20.3881 21 20.5 20.8881 20.5 20.75L20.5 15.25Z" fill="black"/>
</svg>

<svg xmlns="http://www.w3.org/2000/svg" width="24" height="25" viewBox="0 0 24 25"><path fill-rule="evenodd" d="M20.25 2.5c.966 0 1.75.784 1.75 1.75v5.5a1.75 1.75 0 01-1.75 1.75H3.75A1.75 1.75 0 012 9.75v-5.5c0-.966.784-1.75 1.75-1.75h16.5zm.25 1.75a.25.25 0 00-.25-.25H3.75a.25.25 0 00-.25.25v5.5c0 .138.112.25.25.25h16.5a.25.25 0 00.25-.25v-5.5zm-.25 9.25c.966 0 1.75.784 1.75 1.75v5.5a1.75 1.75 0 01-1.75 1.75H3.75A1.75 1.75 0 012 20.75v-5.5c0-.966.784-1.75 1.75-1.75h16.5zm.25 1.75a.25.25 0 00-.25-.25H3.75a.25.25 0 00-.25.25v5.5c0 .138.112.25.25.25h16.5a.25.25 0 00.25-.25v-5.5z"/></svg>
